src/gesture/button-south-symbolic.svg

<svg width="64" height="64" version="1.1" xmlns="http://www.w3.org/2000/svg">
  <title>Gnome Symbolic Icon Theme</title>
  <g transform="translate(-283,-601)" fill="#bebebe">
    <path transform="translate(283,601)" d="m32 40a12 12 0 0 0-12 12 12 12 0 0 0 12 12 12 12 0 0 0 12-12 12 12 0 0 0-12-12z"/>
    <path transform="translate(283,601)" d="m32 0a12 12 0 0 0-12 12 12 12 0 0 0 12 12 12 12 0 0 0 12-12 12 12 0 0 0-12-12zm0 3a9 9 0 0 1 9 9 9 9 0 0 1-9 9 9 9 0 0 1-9-9 9 9 0 0 1 9-9z"/>
    <path transform="translate(283,601)" d="m12 20a12 12 0 0 0-12 12 12 12 0 0 0 12 12 12 12 0 0 0 12-12 12 12 0 0 0-12-12zm0 3a9 9 0 0 1 9 9 9 9 0 0 1-9 9 9 9 0 0 1-9-9 9 9 0 0 1 9-9z"/>
    <path transform="translate(283,601)" d="m52 20a12 12 0 0 0-12 12 12 12 0 0 0 12 12 12 12 0 0 0 12-12 12 12 0 0 0-12-12zm0 3a9 9 0 0 1 9 9 9 9 0 0 1-9 9 9 9 0 0 1-9-9 9 9 0 0 1 9-9z"/>
  </g>
</svg>

<?xml version="1.0" encoding="UTF-8" standalone="no"?>
<!-- Created with Inkscape (http://www.inkscape.org/) -->

<svg
   xmlns:dc="http://purl.org/dc/elements/1.1/"
   xmlns:cc="http://creativecommons.org/ns#"
   xmlns:rdf="http://www.w3.org/1999/02/22-rdf-syntax-ns#"
   xmlns:svg="http://www.w3.org/2000/svg"
   xmlns="http://www.w3.org/2000/svg"
   xmlns:sodipodi="http://sodipodi.sourceforge.net/DTD/sodipodi-0.dtd"
   xmlns:inkscape="http://www.inkscape.org/namespaces/inkscape"
   sodipodi:docname="button-south-symbolic.svg"
   height="64"
   id="svg7384"
   inkscape:version="0.92.2 2405546, 2018-03-11"
   version="1.1"
   width="64">
  <metadata
     id="metadata90">
    <rdf:RDF>
      <cc:Work
         rdf:about="">
        <dc:format>image/svg+xml</dc:format>
        <dc:type
           rdf:resource="http://purl.org/dc/dcmitype/StillImage" />
        <dc:title>Gnome Symbolic Icon Theme</dc:title>
      </cc:Work>
    </rdf:RDF>
  </metadata>
  <sodipodi:namedview
     inkscape:bbox-paths="false"
     bordercolor="#666666"
     borderopacity="1"
     inkscape:current-layer="layer11"
     inkscape:cx="27.582686"
     inkscape:cy="-12.30522"
     gridtolerance="10"
     inkscape:guide-bbox="true"
     guidetolerance="10"
     id="namedview88"
     inkscape:object-nodes="false"
     inkscape:object-paths="false"
     objecttolerance="10"
     pagecolor="#555753"
     inkscape:pageopacity="1"
     inkscape:pageshadow="2"
     showborder="false"
     showgrid="true"
     showguides="true"
     inkscape:snap-bbox="true"
     inkscape:snap-bbox-midpoints="false"
     inkscape:snap-global="true"
     inkscape:snap-grids="true"
     inkscape:snap-nodes="false"
     inkscape:snap-others="false"
     inkscape:snap-to-guides="true"
     inkscape:window-height="1376"
     inkscape:window-maximized="0"
     inkscape:window-width="1280"
     inkscape:window-x="1280"
     inkscape:window-y="27"
     inkscape:zoom="1">
    <inkscape:grid
       empspacing="2"
       enabled="true"
       id="grid4866"
       snapvisiblegridlinesonly="true"
       spacingx="1"
       spacingy="1"
       type="xygrid"
       visible="true"
       originx="0"
       originy="0" />
  </sodipodi:namedview>
  <title
     id="title9167">Gnome Symbolic Icon Theme</title>
  <defs
     id="defs7386" />
  <g
     inkscape:groupmode="layer"
     id="layer9"
     inkscape:label="status"
     style="display:inline"
     transform="translate(-283,-601)" />
  <g
     inkscape:groupmode="layer"
     id="layer10"
     inkscape:label="devices"
     transform="translate(-283,-601)" />
  <g
     inkscape:groupmode="layer"
     id="layer11"
     inkscape:label="apps"
     transform="translate(-283,-601)">
    <path
       style="opacity:1;fill:#bebebe;fill-opacity:1;stroke:none;stroke-width:0;stroke-miterlimit:4;stroke-dasharray:none;stroke-dashoffset:0;stroke-opacity:1"
       d="M 32 40 A 12 12 0 0 0 20 52 A 12 12 0 0 0 32 64 A 12 12 0 0 0 44 52 A 12 12 0 0 0 32 40 z "
       transform="translate(283,601)"
       id="circle976" />
    <path
       style="opacity:1;fill:#bebebe;fill-opacity:1;stroke:none;stroke-width:0;stroke-miterlimit:4;stroke-dasharray:none;stroke-dashoffset:0;stroke-opacity:1"
       d="M 32 0 A 12 12 0 0 0 20 12 A 12 12 0 0 0 32 24 A 12 12 0 0 0 44 12 A 12 12 0 0 0 32 0 z M 32 3 A 9 9 0 0 1 41 12 A 9 9 0 0 1 32 21 A 9 9 0 0 1 23 12 A 9 9 0 0 1 32 3 z "
       transform="translate(283,601)"
       id="circle828" />
    <path
       style="opacity:1;fill:#bebebe;fill-opacity:1;stroke:none;stroke-width:0;stroke-miterlimit:4;stroke-dasharray:none;stroke-dashoffset:0;stroke-opacity:1"
       d="M 12 20 A 12 12 0 0 0 0 32 A 12 12 0 0 0 12 44 A 12 12 0 0 0 24 32 A 12 12 0 0 0 12 20 z M 12 23 A 9 9 0 0 1 21 32 A 9 9 0 0 1 12 41 A 9 9 0 0 1 3 32 A 9 9 0 0 1 12 23 z "
       transform="translate(283,601)"
       id="circle830" />
    <path
       style="opacity:1;fill:#bebebe;fill-opacity:1;stroke:none;stroke-width:0;stroke-miterlimit:4;stroke-dasharray:none;stroke-dashoffset:0;stroke-opacity:1"
       d="M 52 20 A 12 12 0 0 0 40 32 A 12 12 0 0 0 52 44 A 12 12 0 0 0 64 32 A 12 12 0 0 0 52 20 z M 52 23 A 9 9 0 0 1 61 32 A 9 9 0 0 1 52 41 A 9 9 0 0 1 43 32 A 9 9 0 0 1 52 23 z "
       transform="translate(283,601)"
       id="circle832" />
  </g>
  <g
     inkscape:groupmode="layer"
     id="layer13"
     inkscape:label="places"
     transform="translate(-283,-601)" />
  <g
     inkscape:groupmode="layer"
     id="layer14"
     inkscape:label="mimetypes"
     transform="translate(-283,-601)" />
  <g
     inkscape:groupmode="layer"
     id="layer15"
     inkscape:label="emblems"
     style="display:inline"
     transform="translate(-283,-601)" />
  <g
     inkscape:groupmode="layer"
     id="g71291"
     inkscape:label="emotes"
     style="display:inline"
     transform="translate(-283,-601)" />
  <g
     inkscape:groupmode="layer"
     id="g4953"
     inkscape:label="categories"
     style="display:inline"
     transform="translate(-283,-601)" />
  <g
     inkscape:groupmode="layer"
     id="layer12"
     inkscape:label="actions"
     style="display:inline"
     transform="translate(-283,-601)" />
</svg>
